X:1
T:[ID 6v-9 (=6-95)]
T:[ID 6v-9 (=6-95)]
T:Bezeichnung standardisiert: Preussisches Exercitium; Preussischer Exersitium In dieser Quelle auch als: Preussischer Exercitium In anderer Quelle: Das preu\ssische Exercitium - Hs \"OVLA E-97/E-149 um 1750 (Anm. S. Wascher);  Preusch - Exertierium - Hs. Arendsee  (Anm. S. Wascher);  Strandideldam oder Lange = Bahn - Hs. Arendsee  (Anm. S. Wascher) \"Ahnlich in anderer Quelle: Rigadoon in C major Henry Purcell Zimmerman-Verzeichnis 653 (Anm. S. Wascher); 49 / Prins georg - Drey\sser 1720 (Anm. S. Wascher); B-Teil: Tanz mir nicht mit meiner Jungfer K\"athen - Valentin Hau\ssmann 1609 (Anm. M. M\"uller);
T:Urheber unbekannt Erstbeleg: um 1750 (Datum in der schriftlichen Quelle) Datum in der hier transkribierten schriftlichen Quelle: 1776 - 1791
C:Urheber unbekannt
C:Erstbeleg: um 1750 (Datum in der schriftlichen Quelle)
C:Datum in der hier transkribierten schriftlichen Quelle: 1776 - 1791
L:1/8
M:2/4
K:D
V:1 treble 
V:1
 A | d2 cB | AA/B/ AA | BA/B/ cB/c/ | dAFD | d2 cB | AA/B/ AA | BA/B/ cB/c/ | d3 :: d | ff/g/ ff | %11
 ee eg | f2 z d | ff/g/ ff | ee ef | d3 :| %16

